;FLAVOR:Marlin
;TIME:31
;Filament used: 0.0236613m
;Layer height: 0.28
;MINX:112.72
;MINY:112.72
;MINZ:0.28
;MAXX:122.28
;MAXY:122.28
;MAXZ:0.56
;Generated with Cura_SteamEngine master
M140 S50
M105
M190 S50
M104 S200
M105
M109 S200
M82 ;absolute extrusion mode
; Ender 3 Custom Start G-code
G92 E0 ; Reset Extruder
G28 ; Home all axes
G1 Z2.0 F3000 ; Move Z Axis up little to prevent scratching of Heat Bed
G1 X0.1 Y20 Z0.3 F5000.0 ; Move to start position
G1 X0.1 Y200.0 Z0.3 F1500.0 E15 ; Draw the first line
G1 X0.4 Y200.0 Z0.3 F5000.0 ; Move to side a little
G1 X0.4 Y20 Z0.3 F1500.0 E30 ; Draw the second line
G92 E0 ; Reset Extruder
G1 Z2.0 F3000 ; Move Z Axis up little to prevent scratching of Heat Bed
G1 X5 Y20 Z0.3 F5000.0 ; Move over to prevent blob squish
G92 E0
G92 E0
G1 F2700 E-5
;LAYER_COUNT:2
;LAYER:0
M107
;MESH:kub.stl
G0 F6000 X113.16 Y121.84 Z0.28
;TYPE:WALL-INNER
G1 F2700 E0
G1 F1200 X113.16 Y113.16 E0.44459
G1 X121.84 Y113.16 E0.88919
G1 X121.84 Y121.84 E1.33378
G1 X113.16 Y121.84 E1.77838
G0 F6000 X112.72 Y122.28
;TYPE:WALL-OUTER
G1 F1200 X112.72 Y112.72 E2.26805
G1 X122.28 Y112.72 E2.75772
G1 X122.28 Y122.28 E3.24739
G1 X112.72 Y122.28 E3.73706
G0 F6000 X113.01 Y121.99
G0 X113.29 Y121.41
G0 X113.59 Y121.41
;TYPE:SKIN
G1 F1200 X113.59 Y113.59 E4.1376
G1 X121.41 Y113.59 E4.53815
G1 X121.41 Y121.41 E4.93869
G1 X113.59 Y121.41 E5.33924
G0 F6000 X114.388 Y121.233
G1 F1200 X113.765 Y120.61 E5.38436
G0 F6000 X113.765 Y119.988
G1 F1200 X115.01 Y121.233 E5.47455
G0 F6000 X115.633 Y121.233
G1 F1200 X113.765 Y119.365 E5.60986
G0 F6000 X113.765 Y118.743
G1 F1200 X116.255 Y121.233 E5.79023
G0 F6000 X116.877 Y121.233
G1 F1200 X113.765 Y118.121 E6.01565
G0 F6000 X113.765 Y117.499
G1 F1200 X117.499 Y121.233 E6.28613
G0 F6000 X118.122 Y121.233
G1 F1200 X113.765 Y116.876 E6.60174
G0 F6000 X113.765 Y116.254
G1 F1200 X118.744 Y121.233 E6.9624
G0 F6000 X119.366 Y121.233
G1 F1200 X113.765 Y115.632 E7.36812
G0 F6000 X113.765 Y115.01
G1 F1200 X119.988 Y121.233 E7.8189
G0 F6000 X120.611 Y121.233
G1 F1200 X113.765 Y114.387 E8.3148
G0 F6000 X113.765 Y113.765
G1 F1200 X121.233 Y121.233 E8.85576
G0 F6000 X121.233 Y120.611
G1 F1200 X114.388 Y113.766 E9.35159
G0 F6000 X115.01 Y113.766
G1 F1200 X121.233 Y119.988 E9.80233
G0 F6000 X121.233 Y119.366
G1 F1200 X115.633 Y113.766 E10.20797
G0 F6000 X116.255 Y113.766
G1 F1200 X121.233 Y118.744 E10.56856
G0 F6000 X121.233 Y118.122
G1 F1200 X116.877 Y113.766 E10.8841
G0 F6000 X117.499 Y113.766
G1 F1200 X121.233 Y117.499 E11.15454
G0 F6000 X121.233 Y116.877
G1 F1200 X118.122 Y113.766 E11.37989
G0 F6000 X118.744 Y113.766
G1 F1200 X121.233 Y116.255 E11.56019
G0 F6000 X121.233 Y115.633
G1 F1200 X119.366 Y113.766 E11.69543
G0 F6000 X119.988 Y113.766
G1 F1200 X121.233 Y115.01 E11.78558
G0 F6000 X121.233 Y114.388
G1 F1200 X120.611 Y113.766 E11.83063
G0 F6000 X120.611 Y113.38
;MESH:NONMESH
G0 F300 X120.611 Y113.38 Z0.56
G0 F6000 X120.611 Y113.29
G0 X113.362 Y113.362
G0 X113.16 Y121.84
;TIME_ELAPSED:18.611596
;LAYER:1
M140 S50
M106 S85
;TYPE:WALL-INNER
;MESH:kub.stl
G1 F1350 X113.16 Y113.16 E12.27523
G1 X121.84 Y113.16 E12.71982
G1 X121.84 Y121.84 E13.16442
G1 X113.16 Y121.84 E13.60901
G0 F7500 X112.72 Y122.28
;TYPE:WALL-OUTER
G1 F1350 X112.72 Y112.72 E14.09868
G1 X122.28 Y112.72 E14.58835
G1 X122.28 Y122.28 E15.07802
G1 X112.72 Y122.28 E15.56769
G0 F7500 X113.01 Y121.99
G0 X113.29 Y121.41
G0 X113.59 Y121.41
;TYPE:SKIN
G1 F1350 X113.59 Y113.59 E15.96823
G1 X121.41 Y113.59 E16.36878
G1 X121.41 Y121.41 E16.76932
G1 X113.59 Y121.41 E17.16987
G0 F7500 X113.29 Y121.41
G0 X113.29 Y113.978
G0 X113.766 Y113.978
G1 F1350 X113.979 Y113.765 E17.1853
G0 F7500 X114.601 Y113.765
G1 F1350 X113.766 Y114.6 E17.24578
G0 F7500 X113.766 Y115.223
G1 F1350 X115.223 Y113.765 E17.35136
G0 F7500 X115.846 Y113.765
G1 F1350 X113.766 Y115.845 E17.50203
G0 F7500 X113.766 Y116.467
G1 F1350 X116.468 Y113.765 E17.69775
G0 F7500 X117.09 Y113.765
G1 F1350 X113.766 Y117.089 E17.93853
G0 F7500 X113.766 Y117.712
G1 F1350 X117.712 Y113.765 E18.2244
G0 F7500 X118.335 Y113.765
G1 F1350 X113.766 Y118.334 E18.55537
G0 F7500 X113.766 Y118.956
G1 F1350 X118.957 Y113.765 E18.93139
G0 F7500 X119.579 Y113.765
G1 F1350 X113.766 Y119.578 E19.35246
G0 F7500 X113.766 Y120.201
G1 F1350 X120.201 Y113.765 E19.81863
G0 F7500 X120.824 Y113.765
G1 F1350 X113.766 Y120.823 E20.32989
G0 F7500 X113.978 Y121.233
G1 F1350 X121.233 Y113.978 E20.85542
G0 F7500 X121.233 Y114.6
G1 F1350 X114.6 Y121.233 E21.33589
G0 F7500 X115.223 Y121.233
G1 F1350 X121.233 Y115.223 E21.77124
G0 F7500 X121.233 Y115.845
G1 F1350 X115.845 Y121.233 E22.16153
G0 F7500 X116.467 Y121.233
G1 F1350 X121.233 Y116.467 E22.50676
G0 F7500 X121.233 Y117.089
G1 F1350 X117.089 Y121.233 E22.80694
G0 F7500 X117.712 Y121.233
G1 F1350 X121.233 Y117.712 E23.06199
G0 F7500 X121.233 Y118.334
G1 F1350 X118.334 Y121.233 E23.27199
G0 F7500 X118.956 Y121.233
G1 F1350 X121.233 Y118.956 E23.43692
G0 F7500 X121.233 Y119.578
G1 F1350 X119.578 Y121.233 E23.55681
G0 F7500 X120.201 Y121.233
G1 F1350 X121.233 Y120.201 E23.63156
G0 F7500 X121.233 Y120.823
G1 F1350 X120.823 Y121.233 E23.66126
G0 F7500 X120.823 Y121.62
;TIME_ELAPSED:31.430528
G1 F2700 E18.66126
M140 S0
M107
G91 ;Relative positioning
G1 E-2 F2700 ;Retract a bit
G1 E-2 Z0.2 F2400 ;Retract and raise Z
G1 X5 Y5 F3000 ;Wipe out
G1 Z10 ;Raise Z more
G90 ;Absolute positionning

G1 X0 Y235 ;Present print
M106 S0 ;Turn-off fan
M104 S0 ;Turn-off hotend
M140 S0 ;Turn-off bed

M84 X Y E ;Disable all steppers but Z

M82 ;absolute extrusion mode
M104 S0
;End of Gcode
;SETTING_3 {"global_quality": "[general]\\nversion = 4\\nname = Low Quality #2\\
;SETTING_3 ndefinition = creality_ender3\\n\\n[metadata]\\ntype = quality_change
;SETTING_3 s\\nquality_type = low\\n\\n[values]\\nadhesion_type = skirt\\nmateri
;SETTING_3 al_bed_temperature = 50\\nsupport_enable = True\\n\\n", "extruder_qua
;SETTING_3 lity": ["[general]\\nversion = 4\\nname = Low Quality #2\\ndefinition
;SETTING_3  = creality_ender3\\n\\n[metadata]\\ntype = quality_changes\\nquality
;SETTING_3 _type = low\\nposition = 0\\n\\n[values]\\ninfill_sparse_density = 20
;SETTING_3 \\nline_width = 0.44\\nskirt_brim_line_width = 0.44\\nskirt_line_coun
;SETTING_3 t = 0\\n\\n"]}
